svg/set/SCD/M.svg

<?xml version="1.0" encoding="UTF-8" standalone="no"?>
<!-- Generator: Adobe Illustrator 15.1.0, SVG Export Plug-In . SVG Version: 6.00 Build 0)  -->

<svg
   version="1.1"
   id="Layer_1"
   x="0px"
   y="0px"
   width="138.804"
   height="150"
   viewBox="0 0 138.804 150"
   enable-background="new 0 0 150 156"
   xml:space="preserve"
   xmlns="http://www.w3.org/2000/svg"
   xmlns:svg="http://www.w3.org/2000/svg"><defs
   id="defs27" />
<g
   id="g27"
   transform="translate(-5.513,-2.643)">
	<polygon
   points="5.513,38.309 38.629,22.451 50.513,2.643 99.317,2.643 111.201,22.451 144.317,38.309 139.592,69.258 139.592,95.229 74.915,152.643 10.238,95.229 10.238,69.258 "
   id="polygon1" />
	<linearGradient
   id="SVGID_1_"
   gradientUnits="userSpaceOnUse"
   x1="12.3271"
   y1="76.599602"
   x2="137.5029"
   y2="76.599602">
		<stop
   offset="0"
   style="stop-color:#BB2C26"
   id="stop1" />
		<stop
   offset="0.0414"
   style="stop-color:#BF3526"
   id="stop2" />
		<stop
   offset="0.1088"
   style="stop-color:#CB4D25"
   id="stop3" />
		<stop
   offset="0.1935"
   style="stop-color:#DE7523"
   id="stop4" />
		<stop
   offset="0.2"
   style="stop-color:#E07823"
   id="stop5" />
		<stop
   offset="0.208"
   style="stop-color:#E17A23"
   id="stop6" />
		<stop
   offset="0.2924"
   style="stop-color:#EE8B1F"
   id="stop7" />
		<stop
   offset="0.3848"
   style="stop-color:#F5951E"
   id="stop8" />
		<stop
   offset="0.5"
   style="stop-color:#F7981D"
   id="stop9" />
		<stop
   offset="0.6152"
   style="stop-color:#F5951E"
   id="stop10" />
		<stop
   offset="0.7076"
   style="stop-color:#EE8B1F"
   id="stop11" />
		<stop
   offset="0.792"
   style="stop-color:#E17A23"
   id="stop12" />
		<stop
   offset="0.8"
   style="stop-color:#E07823"
   id="stop13" />
		<stop
   offset="0.8476"
   style="stop-color:#D35D24"
   id="stop14" />
		<stop
   offset="0.9069"
   style="stop-color:#C64225"
   id="stop15" />
		<stop
   offset="0.9597"
   style="stop-color:#BE3226"
   id="stop16" />
		<stop
   offset="1"
   style="stop-color:#BB2C26"
   id="stop17" />
	</linearGradient>
	<polygon
   fill="url(#SVGID_1_)"
   points="12.327,41.911 42.979,27.232 54.02,8.836 95.811,8.836 106.851,27.232 137.503,41.911 133.398,68.788 133.398,92.446 74.915,144.363 16.432,92.446 16.432,68.788 "
   id="polygon17"
   style="fill:url(#SVGID_1_)" />
	<path
   d="M 102.012,32.545 91.914,15.716 H 57.916 l -10.098,16.829 -27.92,13.369 3.414,22.351 v 21.09 l 51.603,45.809 51.603,-45.809 v -21.09 l 3.414,-22.351 z M 59.862,19.156 h 30.104 l 8.681,14.465 -23.73,31.97 -23.72,-31.99 z M 76.637,71.021 121.64,89.084 76.635,129.037 Z M 73.195,129.037 28.19,89.084 73.195,71.021 Z M 48.66,35.955 72.206,67.712 26.752,85.955 v -17.95 l -3.068,-20.09 z m 74.418,32.05 V 85.953 L 77.627,67.712 101.191,35.966 126.146,47.915 Z"
   id="path17" />
	<path
   d="m 74.915,48.742 c -6.213,0 -11.267,-5.055 -11.267,-11.268 0,-6.212 5.054,-11.266 11.267,-11.266 6.213,0 11.267,5.054 11.267,11.266 0,6.214 -5.054,11.268 -11.267,11.268 z"
   id="path18" />
	<path
   fill="#ffffff"
   d="m 74.915,45.302 c -4.315,0 -7.827,-3.512 -7.827,-7.827 0,-4.314 3.512,-7.825 7.827,-7.825 4.315,0 7.827,3.511 7.827,7.825 0,4.315 -3.512,7.827 -7.827,7.827 z"
   id="path19" />
	<path
   d="m 43.093,71.791 c -6.213,0 -11.266,-5.054 -11.266,-11.266 0,-6.213 5.053,-11.268 11.266,-11.268 6.213,0 11.267,5.055 11.267,11.268 -10e-4,6.212 -5.054,11.266 -11.267,11.266 z"
   id="path20" />
	<path
   fill="#ffffff"
   d="m 43.093,68.351 c -4.315,0 -7.827,-3.511 -7.827,-7.825 0,-4.315 3.512,-7.827 7.827,-7.827 4.315,0 7.827,3.512 7.827,7.827 0,4.314 -3.512,7.825 -7.827,7.825 z"
   id="path21" />
	<path
   d="m 57.198,106.366 c -6.214,0 -11.267,-5.055 -11.267,-11.268 0,-6.213 5.053,-11.267 11.267,-11.267 6.212,0 11.267,5.054 11.267,11.267 0,6.213 -5.055,11.268 -11.267,11.268 z"
   id="path22" />
	<path
   fill="#ffffff"
   d="m 57.198,102.926 c -4.315,0 -7.827,-3.512 -7.827,-7.827 0,-4.314 3.512,-7.826 7.827,-7.826 4.314,0 7.826,3.512 7.826,7.826 0,4.315 -3.511,7.827 -7.826,7.827 z"
   id="path23" />
	<path
   d="m 106.737,71.791 c 6.213,0 11.267,-5.054 11.267,-11.266 0,-6.213 -5.054,-11.268 -11.267,-11.268 -6.213,0 -11.267,5.055 -11.267,11.268 0.001,6.212 5.054,11.266 11.267,11.266 z"
   id="path24" />
	<path
   fill="#ffffff"
   d="m 106.737,68.351 c 4.315,0 7.827,-3.511 7.827,-7.825 0,-4.315 -3.512,-7.827 -7.827,-7.827 -4.315,0 -7.827,3.512 -7.827,7.827 0,4.314 3.512,7.825 7.827,7.825 z"
   id="path25" />
	<path
   d="m 92.632,106.366 c 6.214,0 11.267,-5.055 11.267,-11.268 0,-6.213 -5.053,-11.267 -11.267,-11.267 -6.212,0 -11.267,5.054 -11.267,11.267 0,6.213 5.055,11.268 11.267,11.268 z"
   id="path26" />
	<path
   fill="#ffffff"
   d="m 92.632,102.926 c 4.315,0 7.827,-3.512 7.827,-7.827 0,-4.314 -3.512,-7.826 -7.827,-7.826 -4.314,0 -7.826,3.512 -7.826,7.826 0,4.315 3.511,7.827 7.826,7.827 z"
   id="path27" />
</g>
</svg>

<?xml version="1.0" encoding="utf-8"?>
<!-- Generator: Adobe Illustrator 15.1.0, SVG Export Plug-In . SVG Version: 6.00 Build 0)  -->
<!DOCTYPE svg PUBLIC "-//W3C//DTD SVG 1.1//EN" "http://www.w3.org/Graphics/SVG/1.1/DTD/svg11.dtd">
<svg version="1.1"
	 id="Layer_1" xmlns:rdf="http://www.w3.org/1999/02/22-rdf-syntax-ns#" xmlns:svg="http://www.w3.org/2000/svg" xmlns:cc="http://creativecommons.org/ns#" xmlns:dc="http://purl.org/dc/elements/1.1/"
	 xmlns="http://www.w3.org/2000/svg" xmlns:xlink="http://www.w3.org/1999/xlink" x="0px" y="0px" width="150px" height="156px"
	 viewBox="0 0 150 156" enable-background="new 0 0 150 156" xml:space="preserve">
<g>
	<polygon points="10.238,95.229 10.238,69.258 5.513,38.309 38.629,22.451 50.513,2.643 99.317,2.643 111.201,22.451 
		144.317,38.309 139.592,69.258 139.592,95.229 74.915,152.643 	"/>
	<linearGradient id="SVGID_1_" gradientUnits="userSpaceOnUse" x1="12.3271" y1="76.5996" x2="137.5029" y2="76.5996">
		<stop  offset="0" style="stop-color:#BB2C26"/>
		<stop  offset="0.0414" style="stop-color:#BF3526"/>
		<stop  offset="0.1088" style="stop-color:#CB4D25"/>
		<stop  offset="0.1935" style="stop-color:#DE7523"/>
		<stop  offset="0.2" style="stop-color:#E07823"/>
		<stop  offset="0.208" style="stop-color:#E17A23"/>
		<stop  offset="0.2924" style="stop-color:#EE8B1F"/>
		<stop  offset="0.3848" style="stop-color:#F5951E"/>
		<stop  offset="0.5" style="stop-color:#F7981D"/>
		<stop  offset="0.6152" style="stop-color:#F5951E"/>
		<stop  offset="0.7076" style="stop-color:#EE8B1F"/>
		<stop  offset="0.792" style="stop-color:#E17A23"/>
		<stop  offset="0.8" style="stop-color:#E07823"/>
		<stop  offset="0.8476" style="stop-color:#D35D24"/>
		<stop  offset="0.9069" style="stop-color:#C64225"/>
		<stop  offset="0.9597" style="stop-color:#BE3226"/>
		<stop  offset="1" style="stop-color:#BB2C26"/>
	</linearGradient>
	<polygon fill="url(#SVGID_1_)" points="16.432,92.446 16.432,68.788 12.327,41.911 42.979,27.232 54.02,8.836 95.811,8.836 
		106.851,27.232 137.503,41.911 133.398,68.788 133.398,92.446 74.915,144.363 	"/>
	<path d="M102.012,32.545L91.914,15.716H57.916L47.818,32.545l-27.92,13.369l3.414,22.351v21.09l51.603,45.809l51.603-45.809v-21.09
		l3.414-22.351L102.012,32.545z M59.862,19.156h30.104l8.681,14.465l-23.73,31.97l-23.72-31.99L59.862,19.156z M76.637,71.021
		l45.003,18.063l-45.005,39.953L76.637,71.021z M73.195,129.037L28.19,89.084l45.005-18.063V129.037z M48.66,35.955l23.546,31.757
		L26.752,85.955v-17.95l-3.068-20.09L48.66,35.955z M123.078,68.005v17.948L77.627,67.712l23.564-31.746l24.955,11.949
		L123.078,68.005z"/>
	<path d="M74.915,48.742c-6.213,0-11.267-5.055-11.267-11.268c0-6.212,5.054-11.266,11.267-11.266s11.267,5.054,11.267,11.266
		C86.182,43.688,81.128,48.742,74.915,48.742z"/>
	<path fill="#FFFFFF" d="M74.915,45.302c-4.315,0-7.827-3.512-7.827-7.827c0-4.314,3.512-7.825,7.827-7.825s7.827,3.511,7.827,7.825
		C82.742,41.79,79.23,45.302,74.915,45.302z"/>
	<path d="M43.093,71.791c-6.213,0-11.266-5.054-11.266-11.266c0-6.213,5.053-11.268,11.266-11.268s11.267,5.055,11.267,11.268
		C54.359,66.737,49.306,71.791,43.093,71.791z"/>
	<path fill="#FFFFFF" d="M43.093,68.351c-4.315,0-7.827-3.511-7.827-7.825c0-4.315,3.512-7.827,7.827-7.827s7.827,3.512,7.827,7.827
		C50.92,64.84,47.408,68.351,43.093,68.351z"/>
	<path d="M57.198,106.366c-6.214,0-11.267-5.055-11.267-11.268s5.053-11.267,11.267-11.267c6.212,0,11.267,5.054,11.267,11.267
		S63.41,106.366,57.198,106.366z"/>
	<path fill="#FFFFFF" d="M57.198,102.926c-4.315,0-7.827-3.512-7.827-7.827c0-4.314,3.512-7.826,7.827-7.826
		c4.314,0,7.826,3.512,7.826,7.826C65.024,99.414,61.513,102.926,57.198,102.926z"/>
	<path d="M106.737,71.791c6.213,0,11.267-5.054,11.267-11.266c0-6.213-5.054-11.268-11.267-11.268s-11.267,5.055-11.267,11.268
		C95.471,66.737,100.524,71.791,106.737,71.791z"/>
	<path fill="#FFFFFF" d="M106.737,68.351c4.315,0,7.827-3.511,7.827-7.825c0-4.315-3.512-7.827-7.827-7.827
		s-7.827,3.512-7.827,7.827C98.91,64.84,102.422,68.351,106.737,68.351z"/>
	<path d="M92.632,106.366c6.214,0,11.267-5.055,11.267-11.268s-5.053-11.267-11.267-11.267c-6.212,0-11.267,5.054-11.267,11.267
		S86.42,106.366,92.632,106.366z"/>
	<path fill="#FFFFFF" d="M92.632,102.926c4.315,0,7.827-3.512,7.827-7.827c0-4.314-3.512-7.826-7.827-7.826
		c-4.314,0-7.826,3.512-7.826,7.826C84.806,99.414,88.317,102.926,92.632,102.926z"/>
</g>
</svg>
